X:1
T:Joe Turner
M:4/4
L:1/4
K:C
 G| G G2 G| c/2 A3/2 G E| C4-| C3 C| C C2 C| C/2 C3/2 ^D E| C2 G/2- A3/2|\
 ^D/2- E3/2 C2| D D3| E2 D2| C4-| C2 z||
